!!!!SEGMENT: T150_Jan-w44p164-165h40m3-11.krn
!!!COM: Janáček, Leoš [Leo Eugen]
!!!OTL: Act III: A kde otec Pásec? (And Where is Father Pásec?)
!!!AGN: Stage
!!!AGN-sub: Opera
!!!CNT: Czech
!!!ODT: 1923 (rev. 1924)
!!!OPR: Příhody lišky Bystroušky (The Cunning Little Vixen), Opera in Three Acts
!!!filename: T150_Jan-w44p164-165h40m3-11.krn
**kern	**dynam	**kern	**dynam	**kern	**dynam	**kern	**dynam	**kern	**dynam	**kern	**dynam	**text	**text	**text	**kern	**dynam	**kern	**dynam	**kern	**dynam	**kern	**dynam	**kern	**dynam	**kern	**dynam	**kern	**dynam
*grp:A	*	*grp:A	*	*grp:A	*	*grp:A	*	*grp:A	*	*grp:B	*	*	*	*	*grp:A	*	*grp:A	*	*grp:A	*	*grp:A	*	*grp:A	*	*grp:A	*	*grp:A	*
*part10	*	*part9	*	*part8	*	*part7	*	*part6	*	*part5	*	*	*	*	*part4	*	*part3	*	*part3	*	*part2	*	*part2	*	*part1	*	*part1	*
*staff13	*	*staff12	*	*staff11	*	*staff10	*	*staff9	*	*staff8	*	*	*	*	*staff7	*	*staff6	*	*staff5	*	*staff4	*	*staff3	*	*staff2	*	*staff1	*
*ICstr	*	*ICstr	*	*ICstr	*	*ICstr	*	*ICstr	*	*ICvox	*	*	*	*	*ICbras	*	*ICww	*	*ICww	*	*ICww	*	*ICww	*	*ICww	*	*ICww	*
*Icbass	*	*Icello	*	*Iviola	*	*Ivioln	*	*Ivioln	*	*Ibarit	*	*	*	*	*Icor	*	*Ifagot	*	*Ifagot	*	*Iclars	*	*Iclars	*	*Ioboe	*	*Ioboe	*
*I"Contrabass	*	*I"Violoncello	*	*I"Viola	*	*I"Violin II	*	*I"Violin I	*	*I"REVÍRNÍK	*	*	*	*	*I"Horn in F 1, 2	*	*I"Bassoon 1, 2	*	*I"Bassoon 1, 2	*	*I"Clarinet 1, 2	*	*I"Clarinet 1, 2	*	*I"Oboe 1, 2	*	*I"Oboe 1, 2	*
*I'cb	*	*I'vc	*	*I'vla	*	*I'vn	*	*I'vn	*	*I'REV.	*	*	*	*	*I'cor-fr	*	*I'bn	*	*I'bn	*	*I'cl	*	*I'cl	*	*I'ob	*	*I'ob	*
*clefF4	*	*clefF4	*	*clefC3	*	*clefG2	*	*clefG2	*	*clefF4	*	*	*	*	*clefG2	*	*clefF4	*	*clefF4	*	*clefG2	*	*clefG2	*	*clefG2	*	*clefG2	*
*ITrd7c12	*	*	*	*	*	*	*	*	*	*	*	*	*	*	*ITrd4c7	*	*	*	*	*	*ITrd1c2	*	*ITrd1c2	*	*	*	*	*
*k[]	*	*k[]	*	*k[]	*	*k[]	*	*k[]	*	*k[]	*	*	*	*	*k[b-]	*	*k[]	*	*k[]	*	*k[b-e-]	*	*k[b-e-]	*	*k[]	*	*k[]	*
*	*	*	*	*	*	*	*	*	*	*	*	*	*	*	*	*	*	*	*	*	*	*	*	*	*	*	*	*
*M3/4	*	*M3/4	*	*M3/4	*	*M3/4	*	*M3/4	*	*M3/4	*	*	*	*	*M3/4	*	*M3/4	*	*M3/4	*	*M3/4	*	*M3/4	*	*M3/4	*	*M3/4	*
=77	=77	=77	=77	=77	=77	=77	=77	=77	=77	=77	=77	=77	=77	=77	=77	=77	=77	=77	=77	=77	=77	=77	=77	=77	=77	=77	=77	=77
!	!	!	!	!	!	!	!	!	!	!	!	!	!	!	!	!	!	!	!	!	!	!	!	!	!	!	!LO:TX:t=[Con moto [quarter]=104]	!
!	!	!	!	!	!LO:DY:ed=brack	!	!LO:DY:ed=brack	!	!LO:DY:ed=brack	!	!	!	!	!	!	!	!	!LO:DY:ed=brack	!	!LO:DY:ed=brack	!	!LO:DY:ed=brack	!	!LO:DY:ed=brack	!	!LO:DY:ed=brack	!	!LO:DY:ed=brack
4%3r	.	4%3r	.	4B-XZtt	p	4r	p	4r	p	4%3r	.	.	.	.	4%3r	.	4B-XZj]	mf	8d-X'L	mf	4r	mf	8r	mf	4r	mf	8r	mf
.	.	.	.	.	.	.	.	.	.	.	.	.	.	.	.	.	.	.	8B-X'J)j	>	.	.	8e-'	.	.	.	8e-X'	.
!	!	!	!	!	!	!	!	!	!	!	!	!	!	!	!	!	!	!	!	!	!	!	!	!	!	!	!	!LO:HP:ed=brack
.	.	.	.	4r	.	[2b-Xtt	>	[2bb-Xtt	>	.	.	.	.	.	.	.	4r	.	4E-X	]	[2b-	>	4b-	<	[2b-X	>	4b-X	<
.	.	.	.	4r	.	.	.	.	.	.	.	.	.	.	.	.	4r	.	4B-	.	.	.	(8dd-XL	.	.	.	(8dd-XL	.
.	.	.	.	.	.	.	.	.	.	.	.	.	.	.	.	.	.	.	.	.	.	.	8ee-J	[	.	.	8ee-XJ	[
=78	=78	=78	=78	=78	=78	=78	=78	=78	=78	=78	=78	=77	=78	=78	=78	=78	=78	=78	=78	=78	=78	=78	=78	=28	=78	=78	=78	=78
4%3r	.	4%3r	.	4r	.	4b-ttt]	]	4bb-ttt]	]	4%3r	.	.	.	.	4%3r	.	4r	.	8r	.	4b-]	]	8dd-X'L	>	4b-]	]	8dd-X'L	>
.	.	.	.	.	.	.	.	.	.	.	.	.	.	.	.	.	.	.	8E-X'	.	.	.	8b-'J)	.	.	.	8b-X'J)	.
.	.	.	.	[2B-Xtt	> ]	4r	.	4r	.	.	.	.	.	.	.	.	[2B-X	>	4B-X	<	4r	.	4e-	]	4r	.	4e-X	]
.	.	.	.	.	.	4r	.	4r	.	.	.	.	.	.	.	.	.	.	(8d-XL	.	4r	.	4b-	.	4r	.	4b-	.
.	.	.	.	.	.	.	.	.	.	.	.	.	.	.	.	.	.	.	8e-XJ	[	.	.	.	.	.	.	.	.
=79	=79	=79	=79	=79	=79	=79	=79	=79	=79	=79	=79	=79	=79	=79	=79	=79	=79	=79	=79	=79	=79	=79	=79	=79	=79	=79	=79	=79
!	!	!	!	!	!	!	!	!	!	!	!LO:DY:ed=brack	!	!	!	!	!	!	!	!	!	!	!	!	!	!	!	!	!
4%3r	.	4%3r	.	2.B-Xttt_	.	[2.b-Xtt	.	[2.bb-Xtt	.	4%3r	mf	.	.	.	4%3r	.	4B-]	]	8d-X'L	.	4%3r	.	[2.b-tt	p	4%3r	.	([2.b-Xtt	p
.	.	.	.	.	.	.	.	.	.	.	.	.	.	.	.	.	.	.	8B-X'J)	.	.	.	.	.	.	.	.	.
.	.	.	.	.	.	.	.	.	.	.	.	.	.	.	.	.	4r	.	4E-X	.	.	.	.	.	.	.	.	.
.	.	.	.	.	.	.	.	.	.	.	.	.	.	.	.	.	4r	.	4B-	.	.	.	.	.	.	.	.	.
=80	=80	=80	=80	=80	=80	=80	=80	=80	=80	=80	=80	=80	=80	=80	=80	=80	=80	=80	=80	=80	=80	=80	=80	=80	=80	=80	=80	=80
*	*	*	*	*	*	*	*	*	*	*^	*	*	*	*	*	*	*	*	*	*	*	*	*	*	*	*	*	*
*	*	*	*	*	*	*	*	*	*	*	*	*	*	*italic	*	*	*	*	*	*grp:B	*	*	*	*	*	*	*	*	*
!	!	!	!	!	!	!	!	!	!	!	!	!	!	!	!	!	!	!	!	!LO:TX:a:t=a 2	!	!	!	!	!	!	!	!	!
4%3r	.	4%3r	.	2.B-ttt_	.	2.b-ttt_	.	2.bb-ttt_	.	8rB	4rDD	.	.	.	.	4%3r	.	4%3r	.	8d-X'L	p	4%3r	.	2.b-ttt_	.	4%3r	.	2.b-ttt_	.
.	.	.	.	.	.	.	.	.	.	8B-XN/	.	.	.	.	The	.	.	.	.	8B-X'	.	.	.	.	.	.	.	.	.
*	*	*	*	*	*	*	*	*	*	*v	*v	*	*	*	*	*	*	*	*	*	*	*	*	*	*	*	*	*	*
.	.	.	.	.	.	.	.	.	.	(8B-X	.	Šak	Das	tongue	.	.	.	.	8E-X'	.	.	.	.	.	.	.	.	.
.	.	.	.	.	<	.	<	.	<	8B-	.	se	käm	will	.	.	.	.	8B-'J	.	.	.	.	<	.	.	.	<
.	.	.	.	.	.	.	.	.	.	8B-	.	ti	dir	come	.	.	.	.	8d-'L	<	.	.	.	.	.	.	.	.
.	.	.	.	.	.	.	.	.	.	8B-	.	to	zu	in	.	.	.	.	8B-'	.	.	.	.	.	.	.	.	.
=81	=81	=81	=81	=81	=81	=81	=81	=81	=81	=81	=81	=81	=81	=81	=81	=81	=81	=81	=81	=81	=81	=81	=81	=81	=81	=81	=81	=81
4%3r	.	4%3r	.	2.B-ttt]	.	2.b-ttt_	.	2.bb-ttt_	.	8d-X	.	zho-	stat-	hand-	4%3r	.	4%3r	.	8E-X'	.	4%3r	.	2.b-ttt]	.	4%3r	.	2.b-ttt]	.
.	.	.	.	.	.	.	.	.	.	[8B-X	.	-dí,	-ten,	-y,	.	.	.	.	8B-X'J	.	.	.	.	.	.	.	.	.
.	.	.	.	.	.	.	.	.	.	2B-]	.	.	.	.	.	.	.	.	8d-X'L	.	.	.	.	.	.	.	.	.
.	.	.	.	.	.	.	.	.	.	.	.	.	.	.	.	.	.	.	8B-'	.	.	.	.	.	.	.	.	.
.	.	.	.	.	.	.	.	.	.	.	.	.	.	.	.	.	.	.	8E-'	.	.	.	.	.	.	.	.	.
.	.	.	.	.	[	.	[	.	[	.	.	.	.	.	.	.	.	.	8B-'J	[	.	.	.	[	.	.	.	[
=82	=82	=82	=82	=82	=82	=82	=82	=82	=82	=82	=82	=82	=82	=82	=82	=82	=82	=82	=82	=82	=82	=82	=82	=82	=82	=82	=82	=82
4%3r	.	4%3r	.	(4.cn	f	8b-]	.	8bb-]	.	6E-X	.	rech-	Schul-	school-	8r	.	4%3r	.	8c'L	f	4%3r	.	[2.a-X	mf	4%3r	.	4a-X)	.
.	.	.	.	.	.	8a-X'	f	8aa-X'	f	.	.	.	.	.	8E-X 8c	mf	.	.	8E-X'	.	.	.	.	.	.	.	.	.
.	.	.	.	.	.	.	.	.	.	6E-	.	-tor-	-mei-	-mas-	.	.	.	.	.	.	.	.	.	.	.	.	.	.
.	.	.	.	.	.	4ee-X	<	4eee-X	<	.	.	.	.	.	8r	.	.	.	\8AA-X'	.	.	.	.	.	.	.	4r	.
.	.	.	.	.	.	.	.	.	.	6E-)	.	-ku,	-ster,	-ter,	.	.	.	.	.	.	.	.	.	.	.	.	.	.
.	.	.	.	8E-X)	.	.	.	.	.	.	.	.	.	.	8E- 8c	.	.	.	8E-'J	.	.	.	.	.	.	.	.	.
.	.	.	.	([4c	.	(8ffL	.	(8fffL	.	4r	.	.	.	.	8r	.	.	.	8c'L	.	.	.	.	.	.	.	4r	.
.	.	.	.	.	.	8ggJ	[	8gggJ	[	.	.	.	.	.	8E- 8c	.	.	.	8E-'	.	.	.	.	.	.	.	.	.
=83	=83	=83	=83	=83	=83	=83	=83	=83	=83	=83	=83	=83	=83	=83	=83	=83	=83	=83	=83	=83	=83	=83	=83	=83	=83	=83	=83	=83
8r	.	8r	.	8cL]	.	8ff'L	>	8fff'L	>	4%3r	.	.	.	.	8r	.	4%3r	.	\8AA-X'	.	4%3r	.	2.a-_	.	4%3r	.	4%3r	.
8AAA-X'	f	8AA-X'	f	8E-XJ)	.	8ee-X'J)	.	8eee-X'J)	.	.	.	.	.	.	8E-X 8c	.	.	.	8E-X'J	.	.	.	.	.	.	.	.	.
4EE-X	<	4E-X	<	(4.c	.	4a-X	]	4aa-X	]	.	.	.	.	.	8r	.	.	.	8c'L	.	.	.	.	.	.	.	.	.
.	.	.	.	.	.	.	.	.	.	.	.	.	.	.	8E- 8c	.	.	.	8E-'	.	.	.	.	.	.	.	.	.
(8FFL	.	(8FL	.	.	.	4cc	.	4ccc	.	.	.	.	.	.	8r	.	.	.	\8AA-'	.	.	.	.	.	.	.	.	.
8GGJ	[	8GJ	[	8E-)	.	.	.	.	.	.	.	.	.	.	8E- 8c	.	.	.	8E-'J	.	.	.	.	.	.	.	.	.
=84	=84	=84	=84	=84	=84	=84	=84	=84	=84	=84	=84	=84	=84	=84	=84	=84	=84	=84	=84	=84	=84	=84	=84	=84	=84	=84	=84	=84
8FF'L	>	8F'L	>	(4.c	>	8r	.	8r	.	4B-X	.	až	wenn	next	8r	.	4%3r	.	8c'L	p	4%3r	.	2.a-_	p	4%3r	.	4%3r	.
8EE-X'J)	.	8E-X'J)	.	.	.	8a-X'	p	8aa-X'	p	.	.	.	.	.	8E-X 8c	p	.	.	8E-X'	.	.	.	.	.	.	.	.	.
4AAA-X	.	4AA-X	.	.	.	4ee-X	<	4eee-X	<	4B-	.	pu-	du	time	8r	.	.	.	\8AA-X'	.	.	.	.	.	.	.	.	.
.	.	.	.	8E-X)	.	.	.	.	.	.	.	.	.	.	8E- 8c	.	.	.	8E-'J	.	.	.	.	.	.	.	.	.
4CC	p ]	4C	p ]	([4c	p ]	(8ffL	.	(8fffL	.	4B-	.	-deš	den	you	8r	.	.	.	8c'L	.	.	.	.	.	.	.	.	.
.	.	.	.	.	.	8ggJ	[	8gggJ	[	.	.	.	.	.	8E- 8c	.	.	.	8E-'	.	.	.	.	.	.	.	.	.
=9	=9	=9	=9	=9	=9	=9	=9	=9	=9	=9	=9	=9	=9	=9	=9	=9	=9	=9	=9	=9	=9	=9	=9	=9	=9	=9	=9	=9
8r	.	8r	.	8cL]	.	8ff'L	>	8fff'L	>	16%3B-X	.	na	Son-	go	8r	.	4%3r	.	\8AA-X'	.	4%3r	.	2.a-]	.	4%3r	.	4%3r	.
8BBB-X'	.	8BB-X'	.	8E-XJ)	.	8ee-X'J)	.	8eee-X'J)	.	.	.	.	.	.	8E-X 8c	.	.	.	8E-X'J	.	.	.	.	.	.	.	.	.
.	.	.	.	.	.	.	.	.	.	16%3B-	.	ná-	-nen-	a-	.	.	.	.	.	.	.	.	.	.	.	.	.	.
4EE-X	.	4E-X	.	(4.c	.	4a-X	]	4aa-X	]	.	.	.	.	.	8r	.	.	.	8c'L	.	.	.	.	.	.	.	.	.
.	.	.	.	.	.	.	.	.	.	16%3B-	.	-mlu-	-blu-	-court-	8E- 8c	.	.	.	8E-'	.	.	.	.	.	.	.	.	.
(8FFLi	.	(8FLi	.	.	.	4cc	.	4ccc	.	.	.	.	.	.	8r	.	.	.	\8AA-'	.	.	.	.	.	.	.	.	.
.	.	.	.	.	.	.	.	.	.	16%3B-	.	-vy	-men	-ing	.	.	.	.	.	.	.	.	.	.	.	.	.	.
8GGJ	.	8GJ	.	8E-)	.	.	.	.	.	.	.	.	.	.	8E- 8c	.	.	.	8E-'J	.	.	.	.	.	.	.	.	.
=||	=||	=||	=||	=||	=||	=||	=||	=||	=||	=||	=||	=||	=||	=||	=||	=||	=||	=||	=||	=||	=||	=||	=||	=||	=||	=||	=||	=||
*-	*-	*-	*-	*-	*-	*-	*-	*-	*-	*-	*-	*-	*-	*-	*-	*-	*-	*-	*-	*-	*-	*-	*-	*-	*-	*-	*-	*-
!!!system-decoration: [([({(s1,s2)})][({(s3,s4)})][({(s5,s6)})])][(s7)](s8)[(s9,s10,s11,s12,s13)]
!!!RDF**kern: Z = editorial accidental, bracket
!!!RDF**kern: N = cue size
!!!EED: Daniel Wright
!!!EEV: 2021/12/03
!!!RDF**kern: i = marked note, color="hotpink", text="extra("
!!!RDF**kern: j = marked note, color="magenta", text="extra)"
!!!EED2: Jason Lee
!!!Suter_Work_ID: Jan-44
!!!Suter_Example_Number: 150
!!!Suter_Example_ID: Jan-44/164-165/[40]3-11
!!!Premiere_Location: Brno,Czech Republic
!!!Other_Tsigs: none
!!!Full_Unit_Duration: 3:38
!!!First_Publication_Year: 1924
!!!First_Public_Performance_Year: 1924
!!!Example_Total_Measures: 9
!!!Example_Timestamp_Duration: 13
!!!Example_Start_Tsig_Type: simple triple
!!!Example_Start_Tsig_Mean_Beat_Rate: 104
!!!Example_Start_Tsig_Beat_Rate: 104
!!!Example_Start_Tsig_Beat: quarter
!!!Example_Start_Tsig: 3/4
!!!Example_Start_Timestamp: 3:21
!!!Example_Start_Tempo_Expression: [Con moto]
!!!Example_Start_Notated_Beat_Rate: [104]
!!!Example_Start_Notated_Beat: [quarter]
!!!Example_Start_Measure: 77(615)
!!!Example_Metadata_Validated: Y
!!!Example_End_Timestamp: 3:34
!!!Example_End_Measure: 85(623)
!!!Example_Dataset: T
!!!Editorial_Comments: Example Start Notated Beat and Example Start Notated Beat Rate [quarter=104] based on most recent notated beat rate (SWFU, m. 75). Example Start Tempo Expression [Con moto] based on most recent notated tempo expression (SWFU, m. 75). Full Unit Duration and Example Start/End Time calculated from track 25, \"Act III: A kde otec Pásak\" (https://ubc-naxosmusiclibrary-com.eu1.proxy.openathens.net/catalogue/item.asp?cid=00028941712929). Additionally, the SWFU is from mm. 583-704, in the context of the full score.
!!!Death_Place: Moravaská Ostrava,Czech Republic
!!!Death_Date: 12-Aug-1928
!!!Changing_Tsig: no
!!!Birth_Place: Hukvaldy,Moravia
!!!Birth_Date: 3-Jul-1854
!!!Audio_Example_Quarter_Note_Tempo:
!!!Audio_Example_Duration:
!!!EEV2: 2022/04/13
